X: 1915
T: Take Your Boots Off and Go to Bed John
B: australian traditional tunes wiki
M:3/4
L:1/8
R: Polka Mazurka
Q: 1/4=100
K:G
V:1 
D>G || "G" B2 B>d c>B | "D7" A2A2 D>F | A2 A>c B>A | "G" G2G2 D>G |
B2 B>d c>B | "D7" A2A2 D>F | A2 A>c B>A | "G" G2G2 g>d |
"G" B2G2 F>A | "D7" c2c2 e>c | A2 F2 G>B| "G"d2d2 g>d |
B2G2 F>A | "D7" c2c2 e>c | A2G2F2 | "G" G4 ||
% abcbook-tune_id 6342d5be65fcc31756292d68


% abcbook-boost 0
% abcbook-tablature 
% abcbook-transpose 
% abcbook-lastupdated 1665324487480
% abcbook-soundfonts 
% abcbook-repeats 1
% NFF Book 2010

